X: 30939
T: Over The Water To Charlie
R: jig
M: 6/8
K: Dmajor
|:f2 e|d2 B BcB|A2 F A2 A|BcA B2 c|f3 f2 e|
d2 B BcB|A2 F A3|Bcd e2 c|1 d3:|2 d3 d2 A||
d2 e f2 g|a2 b a3|d2 e f2 g|a3a3|
b2 g a2 f|g2 f e2 d|d2c B2 A|g3 f2 e|
d2 B BcB|A2 F A2 A|BcA B2 c|f3 f2 e|
d2 B BcB|A2 F A3|Bcd e2 c|d3||

